ui/StatusQ/src/assets/img/icons/reply.svg

<svg fill="none" height="24" viewBox="0 0 24 24" width="24" xmlns="http://www.w3.org/2000/svg"><path d="m15.5303 12.4697c-.2929-.2929-.7677-.2929-1.0606 0s-.2929.7677 0 1.0606l1.8661 1.8661c.315.315.0919.8536-.3536.8536h-3.9822c-3.45178 0-6.25-2.7982-6.25-6.25 0-3.45178 2.79822-6.25 6.25-6.25.4142 0 .75-.33579.75-.75s-.3358-.75-.75-.75c-4.28021 0-7.75 3.46979-7.75 7.75 0 4.2802 3.46979 7.75 7.75 7.75h3.9822c.4455 0 .6686.5386.3536.8536l-1.8661 1.8661c-.2929.2929-.2929.7677 0 1.0606s.7677.2929 1.0606 0l4-4c.2929-.2929.2929-.7677 0-1.0606z" fill="#000"/></svg>

<svg width="24" height="24" viewBox="0 0 24 24" fill="none" xmlns="http://www.w3.org/2000/svg">
<path d="M15.5303 12.4697C15.2374 12.1768 14.7626 12.1768 14.4697 12.4697C14.1768 12.7626 14.1768 13.2374 14.4697 13.5303L16.3358 15.3964C16.6508 15.7114 16.4277 16.25 15.9822 16.25L12 16.25C8.54822 16.25 5.75 13.4518 5.75 10C5.75 6.54822 8.54822 3.75 12 3.75C12.4142 3.75 12.75 3.41421 12.75 3C12.75 2.58579 12.4142 2.25 12 2.25C7.71979 2.25 4.25 5.71979 4.25 10C4.25 14.2802 7.71979 17.75 12 17.75H15.9822C16.4277 17.75 16.6508 18.2886 16.3358 18.6036L14.4697 20.4697C14.1768 20.7626 14.1768 21.2374 14.4697 21.5303C14.7626 21.8232 15.2374 21.8232 15.5303 21.5303L19.5303 17.5303C19.8232 17.2374 19.8232 16.7626 19.5303 16.4697L15.5303 12.4697Z" fill="black"/>
</svg>
